X:1
T:Title
%%score { 1 | 2 }
L:1/8
Q:1/4=100
M:4/4
K:F
V:1 treble nm="Grand Piano"
V:2 bass 
V:1
 C2 CF A3 [EG] | [DF][DG][DF]D C2 F2 | F2 FA c3 A | [EG][EG][EG][FA] [EG]4 | C2 CF A3 [EG] | %5
w: L.~White * * * *|||||
 [DF][DG][DF]D C2 F2 | F2 FA c3 A | [EG][EG][B,EG][CEA] [A,F]4 | [DFB][DFB][DFB][DFB] A3 A | %9
w: ||||
 cccd c4 | [Ac]2 [Ac][Bd] [Ac]2 AA | AGFA [EG]4 | C2 CF A3 F | [DG][DF][DF]D C2 F2 | FFFA c3 A | %15
w: ||||||
 [EG][EG][EG][EA] F4 |] %16
w: |
V:2
 [F,A,]2 [F,A,][F,A,C] [F,CF]3 [C,B,] | [D,A,][B,,B,][B,,B,][B,,F,B,] [F,A,]2 [F,A,C]2 | %2
 [F,A,]2 [F,A,][F,CF] [F,A,F]3 [F,CF] | [C,C][C,C][C,C][C,C] [C,C]4 | %4
 [F,A,]2 [F,A,][F,A,C] [F,CF]3 [C,B,] | [D,A,][B,,B,][B,,B,][B,,F,B,] [F,A,]2 [F,A,C]2 | %6
 [F,A,C]2 [F,A,C][F,CF] [F,A,F]3 [F,CF] | [C,C][C,C]C,C, F,4 | B,,B,,B,,B,, [F,CF]3 [F,CF] | %9
 [F,A,F][F,A,F][F,A,F][F,B,F] [F,A,F]4 | [F,F]2 [F,F][F,F] [F,F]2 [F,CF][F,CF] | %11
 [F,CF][F,B,E][F,A,][F,CF] [C,C]4 | [F,A,]2 [F,A,][F,A,C] [F,CF]3 [F,A,] | %13
 [B,,B,][B,,B,][B,,B,][B,,F,B,] [F,A,]2 [F,A,C]2 | [F,A,C][F,A,C][F,A,C][F,CF] [F,A,F]3 [F,CF] | %15
 [C,C][C,C][C,B,][C,C] [F,A,]4 |] %16

